src/images/logo.svg

<svg fill="none" height="180" viewBox="0 0 180 180" width="180" xmlns="http://www.w3.org/2000/svg"><path d="m4 4h172v172h-172z" fill="#fbd54b"/><g fill="#000"><path d="m76 119.697-5.6259-9.173-10.1847 6.115.291-11.083h-11.0578l.291 11.083-10.1847-6.115-5.5289 9.173 9.8938 5.351-9.8938 5.255 5.5289 9.173 10.1847-6.02-.291 10.988h11.0578l-.291-10.988 10.1847 6.02 5.6259-9.173-9.8938-5.255z"/><path d="m67.4444 60.7092c0-10.6737-16.332-7.364-16.332-11.7908 0-1.4479 1.2341-2.6063 4.6487-2.6063 2.5094 0 5.2246.7446 7.9808 2.234l2.5095-6.0816c-2.3038-1.3652-5.3069-2.1926-8.3511-2.4409v-4.468h-4.9367v4.5508c-6.6644.8274-9.9144 4.6749-9.9144 9.2258 0 10.7565 16.3732 7.4054 16.3732 11.9976 0 1.4066-1.3164 2.3581-4.6898 2.3581-3.3322 0-6.9524-1.1583-9.503-2.8546l-2.6741 6.0402c2.3861 1.6549 6.2943 2.8546 10.4081 3.1442v4.4267h4.9367v-4.5921c6.4176-.9516 9.5441-4.7577 9.5441-9.1431z"/><path d="m120.861 129.964h8.278l2.083-24.408h-12.389zm4.166 14.48c3.673 0 6.195-2.578 6.195-5.759 0-3.236-2.522-5.649-6.195-5.649s-6.249 2.413-6.249 5.649c0 3.181 2.576 5.759 6.249 5.759z"/><path d="m144.444 51v-7.1667h-7.04l1.062-8.2777h-7.599l-1.062 8.2777h-6.872l1.061-8.2777h-7.599l-1.061 8.2777h-7.935v7.1667h7.041l-.95 8h-7.934v7.1667h7.04l-1.062 8.2777h7.599l1.062-8.2777h6.872l-1.061 8.2777h7.599l1.061-8.2777h7.879v-7.1667h-6.985l.95-8zm-16.483 8h-6.872l.95-8h6.872z"/></g><path d="m4 4h172v172h-172z" stroke="#000" stroke-width="8"/></svg>

<svg width="180" height="180" viewBox="0 0 180 180" fill="none" xmlns="http://www.w3.org/2000/svg">
<rect x="4" y="4" width="172" height="172" fill="#FBD54B"/>
<path d="M76 119.697L70.3741 110.524L60.1894 116.639L60.4804 105.556H49.4226L49.7136 116.639L39.5289 110.524L34 119.697L43.8938 125.048L34 130.303L39.5289 139.476L49.7136 133.456L49.4226 144.444H60.4804L60.1894 133.456L70.3741 139.476L76 130.303L66.1062 125.048L76 119.697Z" fill="black"/>
<path d="M67.4444 60.7092C67.4444 50.0355 51.1124 53.3452 51.1124 48.9184C51.1124 47.4705 52.3465 46.3121 55.7611 46.3121C58.2705 46.3121 60.9857 47.0567 63.7419 48.5461L66.2514 42.4645C63.9476 41.0993 60.9445 40.2719 57.9003 40.0236V35.5556H52.9636V40.1064C46.2992 40.9338 43.0492 44.7813 43.0492 49.3322C43.0492 60.0887 59.4224 56.7376 59.4224 61.3298C59.4224 62.7364 58.106 63.6879 54.7326 63.6879C51.4004 63.6879 47.7802 62.5296 45.2296 60.8333L42.5555 66.8735C44.9416 68.5284 48.8498 69.7281 52.9636 70.0177V74.4444H57.9003V69.8523C64.3179 68.9007 67.4444 65.0946 67.4444 60.7092Z" fill="black"/>
<path d="M120.861 129.964H129.139L131.222 105.556H118.833L120.861 129.964ZM125.027 144.444C128.7 144.444 131.222 141.866 131.222 138.685C131.222 135.449 128.7 133.036 125.027 133.036C121.354 133.036 118.778 135.449 118.778 138.685C118.778 141.866 121.354 144.444 125.027 144.444Z" fill="black"/>
<path d="M144.444 51V43.8333H137.404L138.466 35.5556H130.867L129.805 43.8333H122.933L123.994 35.5556H116.395L115.334 43.8333H107.399V51H114.44L113.49 59H105.556V66.1667H112.596L111.534 74.4444H119.133L120.195 66.1667H127.067L126.006 74.4444H133.605L134.666 66.1667H142.545V59H135.56L136.51 51H144.444ZM127.961 59H121.089L122.039 51H128.911L127.961 59Z" fill="black"/>
<rect x="4" y="4" width="172" height="172" stroke="black" stroke-width="8"/>
</svg>
